24x24/apps/calligrakarbon.svg

<svg xmlns="http://www.w3.org/2000/svg" width="24" height="24" version="1">
 <circle style="opacity:0.2" cx="12" cy="12.5" r="10"/>
 <path style="fill:#abb5bc" d="m 22,12 c 0,2.329191 -0.796317,4.472392 -2.131553,6.172205 -1.830801,2.33069 -4.674791,2.787114 -7.868447,2.787114 -5.5228475,0 -8.2024598,-3.483775 -8.2024598,-9.006622 0,-2.4893905 -0.8879167,-4.719023 0.6170854,-6.4692605 C 6.2485525,3.3506773 8.9665425,2 12,2 17.522847,2 22,6.4771525 22,12 Z"/>
 <path style="fill:#1d9ba1" d="M 4.1175,5.866 C 2.7495,7.6185 2.004,9.777 2,12 c 0,5.525 4.477,10 10,10 3.3155,-5e-4 6.4155,-1.6445 8.276,-4.389 C 19.1505,17.5975 12.323,17.0305 11.378,14.667 10.3555,12.111 12.5345,12 12.023,9.444 11.383,6.244 6.193,5.8905 4.1175,5.8655"/>
 <path style="opacity:0.2;fill:#f4f4f7" d="M 12,2 A 10,10 0 0 0 2,12 10,10 0 0 0 2.0107422,12.291016 10,10 0 0 1 12,2.5 10,10 0 0 1 21.989258,12.208985 10,10 0 0 0 22,12 10,10 0 0 0 12,2 Z"/>
 <path style="opacity:0.2" d="m 4,5.5 a 1,1 0 0 0 -1,1 1,1 0 0 0 1,1 1,1 0 0 0 1,-1 1,1 0 0 0 -1,-1 z m 8,3 a 1,1 0 0 0 -1,1 1,1 0 0 0 1,1 1,1 0 0 0 1,-1 1,1 0 0 0 -1,-1 z m -0.5,5 A 1.5,1.5 0 0 0 10,15 1.5,1.5 0 0 0 11.5,16.5 1.5,1.5 0 0 0 13,15 1.5,1.5 0 0 0 11.5,13.5 Z m 8,3 a 2,2 0 0 0 -2,2 2,2 0 0 0 2,2 2,2 0 0 0 2,-2 2,2 0 0 0 -2,-2 z"/>
 <path style="fill:#3c3f3f" d="M 4.117,5.866 C 4.1135,5.871 4.11,5.876 4.1065,5.8805 c 2.399,0.072 7.31725,0.5685 7.91625,3.5635 0.511,2.556 -2.0895,2.545 -1.067,5.101 0.9455,2.363 7.91875,3.9415 9.04475,3.9545 L 20.276,17.611 C 19.1505,17.5975 12.42375,16.9305 11.47825,14.567 10.45575,12.011 13.03425,12 12.52325,9.444 11.88325,6.244 6.193,5.8905 4.1175,5.866"/>
 <circle style="fill:#f4f4f7" cx="4" cy="6" r="1"/>
 <circle style="fill:#f4f4f7" cx="12" cy="9" r="1"/>
 <circle style="fill:#f4f4f7" cx="11.5" cy="14.5" r="1.5"/>
 <circle style="fill:#f4f4f7" cx="19.5" cy="18" r="2"/>
</svg>

<svg xmlns="http://www.w3.org/2000/svg" width="24" height="24" version="1"><circle style="opacity:.2" cx="12" cy="12.5" r="10"/><path style="fill:#abb5bc" d="M22 12c0 2.33-.796 4.472-2.132 6.172-1.83 2.33-4.674 2.787-7.868 2.787-5.523 0-8.202-3.483-8.202-9.006 0-2.49-.888-4.72.617-6.47A9.977 9.977 0 0 1 12 2c5.523 0 10 4.477 10 10z"/><path style="fill:#1d9ba1" d="M4.117 5.866A9.999 9.999 0 0 0 2 12a10 10 0 0 0 18.276 5.611c-1.125-.014-7.953-.58-8.898-2.944-1.023-2.556 1.156-2.667.645-5.223-.64-3.2-5.83-3.554-7.905-3.579"/><path style="opacity:.2;fill:#f4f4f7" d="M12 2A10 10 0 0 0 2 12a10 10 0 0 0 .01.291A10 10 0 0 1 12 2.5a10 10 0 0 1 9.99 9.709A10 10 0 0 0 22 12 10 10 0 0 0 12 2z"/><path style="opacity:.2" d="M4 5.5a1 1 0 0 0-1 1 1 1 0 0 0 1 1 1 1 0 0 0 1-1 1 1 0 0 0-1-1zm8 3a1 1 0 0 0-1 1 1 1 0 0 0 1 1 1 1 0 0 0 1-1 1 1 0 0 0-1-1zm-.5 5A1.5 1.5 0 0 0 10 15a1.5 1.5 0 0 0 1.5 1.5A1.5 1.5 0 0 0 13 15a1.5 1.5 0 0 0-1.5-1.5zm8 3a2 2 0 0 0-2 2 2 2 0 0 0 2 2 2 2 0 0 0 2-2 2 2 0 0 0-2-2z"/><path style="fill:#3c3f3f" d="M4.117 5.866a.364.364 0 0 1-.01.014c2.398.072 7.317.569 7.916 3.564.51 2.556-2.09 2.545-1.067 5.101.945 2.363 7.918 3.941 9.044 3.954l.276-.888c-1.125-.014-7.852-.68-8.798-3.044-1.022-2.556 1.556-2.567 1.045-5.123-.64-3.2-6.33-3.554-8.405-3.578"/><circle style="fill:#f4f4f7" cx="4" cy="6" r="1"/><circle style="fill:#f4f4f7" cx="12" cy="9" r="1"/><circle style="fill:#f4f4f7" cx="11.5" cy="14.5" r="1.5"/><circle style="fill:#f4f4f7" cx="19.5" cy="18" r="2"/></svg>
